X:1
T:Title
%%score 1 { 2 | 3 }
L:1/8
M:3/4
K:F
V:1 treble nm="Grand Piano"
V:2 treble nm="Grand Piano"
V:3 bass 
V:1
 z2 z2[Q:1/4=94] [FA]>[FA] | [FB]2 [FA]2 [EA]>[EG] | F4 [FG]>[FA] | [GB]>[DG] [CF]2 [CE]2 | %4
[M:2/4] [CF]4 |[M:1/4] [EG]>[EG] |[M:3/4] [EG]2 [FA]2 [GB]>[FB] | [EB]4 [FA]>[FA] | %8
 [FA]2 [FB]2 [Fc]>[Ec] |[M:2/4] [Fc]4 |[M:1/4] [FA]>[FA] |[M:3/4] [FB]2 [FA]2 [EA]>[EG] | %12
 F4 [FG]>[FA] | [GB]>[DG] [CF]2 [CE]2 |[M:2/4] [CF]4 |] %15
V:2
 z2 z2 C>C | D2 C2 C>B, | A,4 D>D | D>[K:bass]B, A,2 B,2 |[M:2/4] A,4 |[M:1/4] C>[K:treble]C | %6
[M:3/4] C2 C2 C>D | C4 C>C | C2 C2 C>B, |[M:2/4] A,4 |[M:1/4] C>C |[M:3/4] D2 C2 C>[K:bass]B, | %12
 A,4 D>D | D>B, A,2 B,2 |[M:2/4] A,4 |] %15
V:3
 z2 z2 F,>F, | F,2 F,2 C,>C, | D,4 B,,>A,, | G,,>B,, C,2 C,2 |[M:2/4] F,4 |[M:1/4] C,>C, | %6
[M:3/4] C,2 C,2 C,>C, | C,4 F,>F, | F,2 G,2 A,>G, |[M:2/4] F,4 |[M:1/4] F,>F, | %11
[M:3/4] F,2 F,2 C,>C, | D,4 B,,>A,, | G,,>B,, C,2 C,2 |[M:2/4] F,4 |] %15

